X:18866
T:Wise Maid
M:C
L:1/8
K:D Major
F2FG FEDE|FAAB AFED|d2eg fdec|dBAF BEE2|!
F2FG FEDE|FAAB AFED|d2eg fdec|dBAG|FDD2:|!
dBAG FDFA|dfaf gfeg|fAdf eAce|dfed cAA2|!
BDGB ADFA|dfaf gfed|cdec dBAG|F2EG FDD2:|!


